public/CINECOLOR_S-LOG3.cube
TITLE "Generated by Resolve"
LUT_3D_SIZE 5
0.0514839 0.0487678 0.0730449
0.180758 0 0.0697185
0.625376 1.5259e-05 0.0766918
1 0.0523079 0.17911
1 0.0527199 0.219837
0 0.189197 0.0271305
0.171633 0.17499 0.0289158
0.624048 0.000183108 0.0593576
1 0.0495766 0.171847
1 0.0527199 0.219837
0 0.620523 0.0266423
0 0.594675 0.0261845
0.545281 0.565621 0.0238956
1 0.4383 0.0666361
1 0.0527199 0.219883
0.0948348 1 0.122972
0.0872358 1 0.115358
0.480827 1 0.0869306
0.943481 0.966781 0.0540932
1 0.909941 0.0550393
0.780789 1 0.0662852
0.782696 1 0.0660868
0.801175 1 0.0643473
0.919539 1 0.0561379
1 1 0.0558785
0 0 0.186175
0.173846 0 0.179461
0.636225 0.000503548 0.176867
1 0.0523079 0.17911
1 0.0527199 0.219837
0 0.174517 0.187182
0.164706 0.15874 0.179843
0.614786 0.00015259 0.163104
1 0.0491951 0.170687
1 0.0527199 0.219837
0 0.610727 0.0334783
0 0.584314 0.0259403
0.536065 0.55555 0.0238346
1 0.425132 0.0651102
1 0.0527199 0.219883
0.0924392 1 0.120577
0.0844892 1 0.112612
0.465599 1 0.0859236
0.937545 0.960571 0.0535439
1 0.898833 0.055024
0.780743 1 0.0662852
0.782559 1 0.0661021
0.799969 1 0.0644694
0.914778 1 0.0562448
1 1 0.0558785
0 0 0.552453
0 0 0.54789
0.638224 0.0015259 0.590936
1 0.0527199 0.628901
1 0.0527199 0.219837
0 0 0.567697
0 0 0.554406
0.603998 0.000885023 0.55758
1 0.0486915 0.571588
1 0.0527199 0.219837
0 0.570764 0.564385
0 0.544945 0.541085
0.51841 0.513344 0.532494
1 0.363378 0.518395
1 0.0527199 0.219867
0.0819715 1 0.535561
0.0753338 1 0.50135
0.430259 0.992935 0.4607
0.922469 0.944854 0.33901
1 0.894362 0.0551003
0.780346 1 0.066331
0.782193 1 0.0661479
0.799283 1 0.0645304
0.912932 1 0.0562905
1 1 0.0558785
0.00572213 0.00782788 0.935454
0.00576791 0.00788891 0.936019
0.540459 0.0107271 0.960815
1 0.0627604 1
1 0.0628061 1
0.00634775 0.00846876 0.943679
0.00572213 0.00784314 0.935515
0.493767 0.00872816 0.937881
1 0.0538033 0.985718
1 0.0594492 0.979934
0.0083772 0.151492 0.948501
0.00695811 0.0964218 0.934752
0.453971 0.0497749 0.932067
1 0.0495766 0.972915
1 0.0586862 0.96585
0.0665141 1 1
0.0593576 0.982681 0.978103
0.117052 0.967956 0.965972
0.889815 0.8934 0.907195
1 0.819379 0.899535
0.703548 1 0.913237
0.711391 1 0.885817
0.73312 1 0.871702
0.863859 1 0.85211
1 1 0.80177
0.0145113 0.0166323 1
0.0145113 0.0166323 1
0.0145113 0.0166323 1
1 0.0631571 1
1 0.0682078 1
0.0145113 0.0166323 1
0.0145113 0.0166323 1
0.0145113 0.0166323 1
0.995636 0.0513924 1
1 0.0682078 1
0.0145113 0.0166323 1
0.0145113 0.0166323 1
0.0145113 0.0166323 1
0.98143 0.0483253 1
1 0.0682078 1
0.0365759 0.880262 1
0.0281376 0.823957 1
0.0243229 0.788846 1
0.877409 0.704585 1
1 0.386191 1
0.572244 1 1
0.57583 1 1
0.609552 1 1
0.808743 1 1
1 1 1
