public/CINECOLOR_S-LOG3.cube
TITLE "Generated by Resolve"
LUT_3D_SIZE 9
0.0514839 0.0487678 0.0730449
0.0514839 0.0487678 0.0730449
0.180758 0 0.0697185
0.35877 0 0.0695811
0.625376 1.5259e-05 0.0766918
0.894667 0.0181888 0.118791
1 0.0523079 0.17911
1 0.0526894 0.204761
1 0.0527199 0.219837
0.0514839 0.0487678 0.0730449
0.0514839 0.0487678 0.0730449
0.190417 0.00654612 0.0698405
0.380591 0 0.0692302
0.64802 0.000686656 0.0782025
0.893339 0.0179751 0.11841
1 0.0513619 0.176715
1 0.0526741 0.202716
1 0.0527199 0.219837
0 0.189197 0.0271305
0 0.187457 0.0285801
0.171633 0.17499 0.0289158
0.365988 0.138247 0.0291752
0.624048 0.000183108 0.0593576
0.873045 0.0149996 0.111879
1 0.0495766 0.171847
1 0.0526741 0.19939
1 0.0527199 0.219837
0 0.376257 0.0278019
0 0.368887 0.0277104
0 0.35729 0.0275273
0.330953 0.340749 0.0245365
0.602533 0.295903 0.0247196
0.861952 0.0920729 0.0458228
1 0.0491188 0.166522
1 0.0526741 0.198474
1 0.0527199 0.219852
0 0.620523 0.0266423
0 0.608438 0.0261997
0 0.594675 0.0261845
0.165362 0.583597 0.0236057
0.545281 0.565621 0.0238956
0.827085 0.529244 0.0331121
1 0.4383 0.0666361
1 0.0525673 0.161776
1 0.0527199 0.219883
0.0276036 0.870832 0.0557259
0.0246891 0.857893 0.0528115
0.0217746 0.844282 0.049897
0.0204471 0.837537 0.0485847
0.465553 0.820523 0.0390326
0.772351 0.799176 0.0332799
0.975479 0.781369 0.0497597
1 0.707027 0.0642405
1 0.314916 0.092546
0.0948348 1 0.122972
0.0910811 1 0.119203
0.0872358 1 0.115358
0.119875 1 0.111437
0.480827 1 0.0869306
0.739986 0.986465 0.0641337
0.943481 0.966781 0.0540932
1 0.949462 0.0558328
1 0.909941 0.0550393
0.59971 1 0.0869154
0.579141 1 0.0893416
0.565164 1 0.0910353
0.575921 1 0.0898146
0.629511 1 0.0833448
0.752087 1 0.0693217
0.9131 1 0.0562905
1 1 0.0558785
1 1 0.0558785
0.780789 1 0.0662852
0.781064 1 0.0662547
0.782696 1 0.0660868
0.786938 1 0.0656901
0.801175 1 0.0643473
0.841016 1 0.0606394
0.919539 1 0.0561379
1 1 0.0559243
1 1 0.0558785
0.0514687 0.0487221 0.073228
0.0514839 0.0487678 0.0730449
0.180194 0 0.0697185
0.35877 0 0.0695811
0.628519 0.00015259 0.0794385
0.896971 0.018616 0.119524
1 0.0523079 0.17911
1 0.0526894 0.204654
1 0.0527199 0.219837
0.0514839 0.0487678 0.0730449
0.0520485 0.0496376 0.0740215
0.190982 0.00743114 0.0751354
0.380346 0 0.0772869
0.646571 0.00062562 0.0822766
0.891569 0.0177005 0.117906
1 0.051194 0.176272
1 0.0526741 0.202457
1 0.0527199 0.219837
0 0.18854 0.0408942
0 0.186542 0.0385138
0.170642 0.173892 0.0341192
0.363684 0.137087 0.0359045
0.620432 0.000122072 0.0617685
0.870054 0.0146029 0.111101
1 0.0494545 0.171328
1 0.0526741 0.198962
1 0.0527199 0.219837
0 0.3738 0.0280461
0 0.366064 0.0276493
0 0.354192 0.0274662
0.327871 0.337667 0.0242466
0.598627 0.293095 0.0250401
0.858564 0.0893873 0.0463874
1 0.0484627 0.165103
1 0.0526741 0.197986
1 0.0527199 0.219852
0 0.616526 0.0263371
0 0.604288 0.0261997
0 0.590204 0.0261692
0.157183 0.578927 0.0235752
0.540963 0.561059 0.0238499
0.823163 0.524422 0.0327764
1 0.431937 0.0658274
1 0.0525826 0.164141
1 0.0527199 0.219883
0.0265354 0.866438 0.0546578
0.0235599 0.853315 0.0516823
0.0208286 0.839612 0.0489509
0.0196231 0.832959 0.0477455
0.459754 0.815824 0.0383307
0.76762 0.794476 0.0328222
0.972824 0.776486 0.0495613
1 0.702022 0.0643626
1 0.281407 0.101427
0.093492 1 0.121614
0.0897231 1 0.117861
0.0858625 1 0.113985
0.102068 1 0.111086
0.473106 1 0.0865492
0.734905 0.983688 0.0640269
0.940459 0.963623 0.053666
1 0.946334 0.0556649
1 0.904356 0.054963
0.592294 1 0.0877852
0.571847 1 0.0902571
0.557656 1 0.0918746
0.568704 1 0.0906233
0.622736 1 0.0842451
0.746456 1 0.0699321
0.909895 1 0.0563821
1 1 0.0558785
1 1 0.0558785
0.780774 1 0.0662852
0.781033 1 0.0662547
0.78265 1 0.0661021
0.78677 1 0.0657054
0.80058 1 0.0644083
0.839612 1 0.0607919
0.917037 1 0.0561685
1 1 0.0559243
1 1 0.0558785
0 0 0.186175
0 0 0.184024
0.173846 0 0.179461
0.357671 0 0.180194
0.636225 0.000503548 0.176867
0.898528 0.0189517 0.143801
1 0.0523079 0.17911
1 0.0527047 0.204532
1 0.0527199 0.219837
0 0 0.183597
0.00656138 0 0.189929
0.184512 0 0.188464
0.377691 0 0.188815
0.644099 0.000701915 0.179629
0.889952 0.0175174 0.140764
1 0.0510109 0.175814
1 0.0526741 0.202213
1 0.0527199 0.219837
0 0.174517 0.187182
0 0.172259 0.18526
0.164706 0.15874 0.179843
0.358511 0.116381 0.175738
0.614786 0.00015259 0.163104
0.867231 0.0142519 0.131945
1 0.0491951 0.170687
1 0.0526741 0.198566
1 0.0527199 0.219837
0 0.366537 0.168261
0 0.358785 0.164569
0 0.34667 0.159686
0.321508 0.330449 0.150683
0.581033 0.292988 0.129046
0.855314 0.07393 0.0779431
1 0.047776 0.164141
1 0.0526741 0.197513
1 0.0527199 0.219852
0 0.610727 0.0334783
0 0.59852 0.0261234
0 0.584314 0.0259403
0.14049 0.573312 0.0237125
0.536065 0.55555 0.0238346
0.819516 0.518456 0.0324865
1 0.425132 0.0651102
1 0.0525826 0.168521
1 0.0527199 0.219883
0.02533 0.861921 0.0534524
0.0228122 0.848905 0.0509346
0.0200198 0.835081 0.0481422
0.018677 0.827817 0.0467994
0.454063 0.811612 0.0381323
0.763241 0.789868 0.0324865
0.969985 0.771237 0.0490425
1 0.697032 0.0646982
1 0.247425 0.110719
0.0924392 1 0.120577
0.0885481 1 0.116686
0.0844892 1 0.112612
0.0825513 1 0.110689
0.465599 1 0.0859236
0.729809 0.980865 0.0638285
0.937545 0.960571 0.0535439
1 0.943465 0.0556954
1 0.898833 0.055024
0.585214 1 0.0885939
0.564263 1 0.0911116
0.550317 1 0.0926986
0.561578 1 0.0914168
0.615824 1 0.085069
0.740963 1 0.0704814
0.906661 1 0.0564736
1 1 0.0558785
1 1 0.0558785
0.780743 1 0.0662852
0.780972 1 0.0662699
0.782559 1 0.0661021
0.786587 1 0.0657206
0.799969 1 0.0644694
0.838178 1 0.060914
0.914778 1 0.0562448
1 1 0.0558785
1 1 0.0558785
0 0 0.338079
0 0 0.334539
0.147921 0 0.330968
0.352255 0 0.338704
0.643961 0.00123598 0.357336
0.900496 0.0194705 0.361486
1 0.0523537 0.253056
1 0.0526894 0.204715
1 0.0527199 0.219837
0 0 0.33727
0 0 0.349676
0.157427 0 0.349004
0.36994 0 0.353643
0.641901 0.0011902 0.355642
0.889693 0.0178683 0.350118
1 0.051194 0.242573
1 0.0526741 0.202213
1 0.0527199 0.219837
0 0.0951705 0.348699
0 0.0907607 0.344488
0.13785 0.0682689 0.337835
0.351431 0.00386053 0.336553
0.613947 0.000610361 0.334691
0.866117 0.0144961 0.325017
1 0.0489204 0.230289
1 0.0526741 0.198474
1 0.0527199 0.219837
0 0.345449 0.347601
0 0.337728 0.340536
0 0.325475 0.332555
0.314031 0.307408 0.326345
0.589059 0.257816 0.317678
0.852537 0.0521248 0.301579
1 0.0475471 0.216907
1 0.0526741 0.197375
1 0.0527199 0.219852
0 0.601114 0.320699
0 0.588876 0.311772
0 0.574609 0.302296
0.106767 0.563851 0.296208
0.530694 0.545693 0.286885
0.806622 0.516426 0.244144
1 0.42887 0.0901198
1 0.0528115 0.171359
1 0.0527199 0.219867
0.0239261 0.856535 0.236957
0.0214847 0.843732 0.219043
0.0189212 0.829725 0.192386
0.0178531 0.82298 0.182544
0.446876 0.805951 0.15758
0.758389 0.785977 0.0840772
0.968154 0.769162 0.0487526
1 0.69424 0.0649729
1 0.232486 0.11545
0.0919356 1 0.120073
0.0880446 1 0.116182
0.0837873 1 0.11191
0.0820478 1 0.110185
0.461723 1 0.085771
0.727581 0.979583 0.0637064
0.936294 0.959289 0.0533913
1 0.942061 0.0555428
1 0.896239 0.0550393
0.581933 1 0.0889601
0.560906 1 0.0914931
0.5467 1 0.0931106
0.558068 1 0.0918288
0.612528 1 0.0854658
0.738537 1 0.0708019
0.905241 1 0.0565194
1 1 0.0558785
1 1 0.0560922
0.780652 1 0.0663005
0.78088 1 0.0662699
0.782467 1 0.0661173
0.786465 1 0.0657359
0.799649 1 0.0644999
0.837491 1 0.0609751
0.913664 1 0.0562753
1 1 0.0558785
1 1 0.0558785
0 0 0.552453
0 0 0.548486
0 0 0.54789
0.324163 0 0.560662
0.638224 0.0015259 0.590936
0.89955 0.019791 0.616968
1 0.0527199 0.628901
1 0.0526894 0.424445
1 0.0527199 0.219837
0 0 0.561257
0 0 0.570825
0 0 0.571359
0.33843 0 0.576349
0.631174 0.00155642 0.584298
0.886366 0.0175784 0.598886
1 0.0509651 0.605035
1 0.0526589 0.418296
1 0.0527199 0.219837
0 0 0.567697
0 0 0.561364
0 0 0.554406
0.324483 0 0.55375
0.603998 0.000885023 0.55758
0.862104 0.0142214 0.566293
1 0.0486915 0.571588
1 0.0526894 0.384207
1 0.0527199 0.219837
0 0.261219 0.57203
0 0.252323 0.562005
0 0.238529 0.552163
0.284596 0.209506 0.54818
0.583322 0.0939803 0.549661
0.849973 0.0128023 0.554589
1 0.0472725 0.559869
1 0.0527657 0.37937
1 0.0527199 0.219852
0 0.570764 0.564385
0 0.55877 0.552697
0 0.544945 0.541085
0.0670787 0.534295 0.536294
0.51841 0.513344 0.532494
0.811582 0.472175 0.527626
1 0.363378 0.518395
1 0.0529946 0.339849
1 0.0527199 0.219867
0.019791 0.840391 0.560433
0.0176547 0.827619 0.545068
0.0157168 0.814054 0.529656
0.0144656 0.807065 0.523201
0.422721 0.78941 0.509087
0.746075 0.766613 0.490929
0.954055 0.754391 0.445258
1 0.703395 0.103502
1 0.220203 0.119478
0.0819715 1 0.535561
0.0788891 1 0.517952
0.0753338 1 0.50135
0.0738537 1 0.492866
0.430259 0.992935 0.4607
0.707607 0.9635 0.418616
0.922469 0.944854 0.33901
1 0.941314 0.0584268
1 0.894362 0.0551003
0.578271 1 0.0894789
0.556191 1 0.0920424
0.542641 1 0.0935378
0.554391 1 0.0922255
0.609415 1 0.0862593
0.736721 1 0.0720989
0.904295 1 0.0566567
1 1 0.0558785
1 1 0.0561227
0.780346 1 0.066331
0.780591 1 0.0663157
0.782193 1 0.0661479
0.786175 1 0.0657664
0.799283 1 0.0645304
0.836896 1 0.0610361
0.912932 1 0.0562905
1 1 0.0558785
1 1 0.0558785
0 0.000595102 0.776379
0 0.000610361 0.773693
0 0.000595102 0.774701
0.20827 0 0.791547
0.614298 0.00343328 0.813809
0.894713 0.0209354 0.841108
1 0.0548104 0.878035
1 0.0543526 0.860883
1 0.0535897 0.822065
0 0.000793469 0.790204
0 0.000885023 0.793912
0 0.000869764 0.793301
0.224811 0 0.796582
0.602808 0.00325017 0.805051
0.879637 0.0184939 0.824399
1 0.0522927 0.857114
1 0.0538491 0.837766
1 0.0531624 0.768719
0 0.000762951 0.789395
0 0.000640879 0.784009
0 0.000610361 0.77763
0.206882 0 0.776577
0.574945 0.00215152 0.781491
0.853513 0.0147555 0.795438
1 0.0486763 0.826001
1 0.0533455 0.806363
1 0.0525978 0.690089
0 0.000854505 0.792828
0 0.000640879 0.784375
0 0.000595102 0.775723
0.182315 0 0.772656
0.564523 0.00215152 0.775555
0.845533 0.0137331 0.787335
1 0.0471656 0.815961
1 0.0531777 0.796323
1 0.0526589 0.649348
0 0.495674 0.793256
0 0.482582 0.783337
0 0.467567 0.77322
0.00030518 0.456504 0.770367
0.491615 0.426566 0.766262
0.804395 0.360784 0.771389
1 0.0902571 0.803296
1 0.0531014 0.78967
1 0.0527199 0.623972
0.0154574 0.809979 0.801892
0.0133516 0.796735 0.788373
0.0115053 0.78233 0.774945
0.0106661 0.775006 0.770062
0.372793 0.757351 0.759289
0.731777 0.731533 0.750484
0.954452 0.708415 0.756344
1 0.627619 0.741924
1 0.11252 0.585885
0.0721904 1 0.838422
0.0689097 1 0.822629
0.0654459 1 0.80621
0.0639506 1 0.799344
0.363134 0.97586 0.773816
0.67686 0.942306 0.741955
0.90193 0.918425 0.718013
1 0.907698 0.664149
1 0.873075 0.416068
0.510216 1 0.744121
0.488029 1 0.732799
0.475227 1 0.719203
0.48954 1 0.711299
0.552178 1 0.698665
0.692042 1 0.675151
0.871916 1 0.642237
1 1 0.580957
1 1 0.188495
0.753307 1 0.463783
0.759106 1 0.386069
0.766552 1 0.300206
0.773327 1 0.257755
0.788495 1 0.227344
0.828168 1 0.196048
0.908293 1 0.124971
1 1 0.0558633
1 1 0.0558785
0.00572213 0.00782788 0.935454
0.00563058 0.00773632 0.934401
0.00576791 0.00788891 0.936019
0.00666819 0.0087892 0.950256
0.540459 0.0107271 0.960815
0.885618 0.0266575 0.983169
1 0.0627604 1
1 0.0628672 1
1 0.0628061 1
0.00650034 0.00860609 0.946502
0.00654612 0.00865187 0.947631
0.00650034 0.00860609 0.946593
0.00660716 0.00872816 0.949157
0.52253 0.0101778 0.953567
0.866636 0.0233616 0.969818
1 0.0592966 1
1 0.0616464 1
1 0.0612345 1
0.00634775 0.00846876 0.943679
0.00607309 0.00817884 0.939864
0.00572213 0.00784314 0.935515
0.00575265 0.0078584 0.935729
0.493767 0.00872816 0.937881
0.837446 0.019379 0.950179
1 0.0538033 0.985718
1 0.0601358 0.990341
1 0.0594492 0.979934
0.00645457 0.00856031 0.945647
0.00610361 0.00820935 0.940093
0.00563058 0.00773632 0.934417
0.00553903 0.00764477 0.933211
0.499214 0.00833143 0.934096
0.831449 0.0186313 0.945083
1 0.0519265 0.978698
1 0.0596628 0.983886
1 0.0590524 0.971252
0.0083772 0.151492 0.948501
0.00743114 0.126543 0.94136
0.00695811 0.0964218 0.934752
0.00660716 0.08542 0.932448
0.453971 0.0497749 0.932067
0.808759 0.0213169 0.940276
1 0.0495766 0.972915
1 0.0594644 0.980423
1 0.0586862 0.96585
0.0142519 0.751385 0.952499
0.0125887 0.736889 0.944015
0.0110018 0.721096 0.9355
0.0099794 0.711849 0.93196
0.24097 0.695201 0.926253
0.714977 0.663981 0.921386
0.960433 0.627085 0.942748
1 0.482811 0.967651
1 0.0583352 0.960601
0.0665141 1 1
0.0630808 0.993759 0.989151
0.0593576 0.982681 0.978103
0.0576638 0.977279 0.973159
0.117052 0.967956 0.965972
0.639445 0.921828 0.924804
0.889815 0.8934 0.907195
1 0.874372 0.904814
1 0.819379 0.899535
0.427359 1 0.968643
0.398169 1 0.96405
0.386389 1 0.957366
0.408682 1 0.95108
0.488884 1 0.938857
0.652186 1 0.916182
0.851225 1 0.893538
1 1 0.886732
1 1 0.865812
0.703548 1 0.913237
0.706554 1 0.900023
0.711391 1 0.885817
0.717296 1 0.878645
0.73312 1 0.871702
0.776318 1 0.863508
0.863859 1 0.85211
0.975082 1 0.840772
1 1 0.80177
0.0145113 0.0166323 1
0.0145113 0.0166323 1
0.0145113 0.0166323 1
0.0145113 0.0166323 1
0.0635233 0.016022 1
0.838529 0.0270848 1
1 0.0657359 1
1 0.0682078 1
1 0.0682078 1
0.0145113 0.0166323 1
0.0145113 0.0166323 1
0.0145113 0.0166323 1
0.0145113 0.0166323 1
0.0763256 0.0160372 1
0.816403 0.0255741 1
1 0.0633555 1
1 0.0682078 1
1 0.0682078 1
0.0145113 0.0166323 1
0.0145113 0.0166323 1
0.0145113 0.0166323 1
0.0145113 0.0166323 1
0.0737774 0.0159915 1
0.783597 0.0236057 1
1 0.0582437 1
1 0.0682078 1
1 0.0682078 1
0.0145113 0.0166323 1
0.0145113 0.0166323 1
0.0145113 0.0166323 1
0.0144808 0.0165866 1
0.057145 0.0160372 1
0.777935 0.0233005 1
1 0.056672 1
1 0.0682078 1
1 0.0682078 1
0.0145113 0.0166323 1
0.0145113 0.0166323 1
0.0145113 0.0166323 1
0.014435 0.0165408 1
0.0728771 0.0158694 1
0.784817 0.0236515 1
1 0.0562142 1
1 0.0682078 1
1 0.0682078 1
0.0143435 0.548959 1
0.014374 0.521859 1
0.0145571 0.507149 1
0.0143282 0.502098 1
0.0222477 0.471885 1
0.697414 0.393866 1
0.978134 0.25008 1
1 0.0755932 1
1 0.0681315 1
0.0576638 0.964172 1
0.0543221 0.952697 1
0.0509651 0.941161 1
0.0495613 0.935317 1
0.0475929 0.92842 1
0.570077 0.887617 1
0.87982 0.85362 1
1 0.827451 1
1 0.74519 1
0.206867 1 1
0.180011 1 1
0.132555 1 1
0.103456 1 1
0.350347 1 1
0.591409 1 1
0.830472 1 1
0.993423 1 1
1 0.981491 1
0.65156 1 1
0.656794 1 1
0.664057 1 1
0.671931 1 1
0.691081 1 1
0.742031 1 1
0.84329 1 1
0.963851 1 1
1 1 0.998444
0.0145113 0.0166323 1
0.0145113 0.0166323 1
0.0145113 0.0166323 1
0.0145113 0.0166323 1
0.0145113 0.0166323 1
0.720119 0.0207065 1
1 0.0631571 1
1 0.0682078 1
1 0.0682078 1
0.0145113 0.0166323 1
0.0145113 0.0166323 1
0.0145113 0.0166323 1
0.0145113 0.0166323 1
0.0145113 0.0166323 1
0.641199 0.0188144 1
1 0.0585641 1
1 0.0682078 1
1 0.0682078 1
0.0145113 0.0166323 1
0.0145113 0.0166323 1
0.0145113 0.0166323 1
0.0145113 0.0166323 1
0.0145113 0.0166323 1
0.446357 0.016968 1
0.995636 0.0513924 1
1 0.0682078 1
1 0.0682078 1
0.0145113 0.0166323 1
0.0145113 0.0166323 1
0.0145113 0.0166323 1
0.0145113 0.0166323 1
0.0145113 0.0166323 1
0.352392 0.0158389 1
0.985077 0.0490883 1
1 0.0682078 1
1 0.0682078 1
0.0145113 0.0166323 1
0.0145113 0.0166323 1
0.0145113 0.0166323 1
0.0145113 0.0166323 1
0.0145113 0.0166323 1
0.436744 0.0168154 1
0.98143 0.0483253 1
1 0.0682078 1
1 0.0682078 1
0.0145113 0.0166323 1
0.0145113 0.0166323 1
0.0145113 0.0166323 1
0.0145113 0.0166323 1
0.0145113 0.0166323 1
0.577493 0.0179141 1
0.986282 0.0493782 1
1 0.0682078 1
1 0.0682078 1
0.0365759 0.880262 1
0.0320134 0.853208 1
0.0281376 0.823957 1
0.026154 0.80618 1
0.0243229 0.788846 1
0.253101 0.75433 1
0.877409 0.704585 1
1 0.638071 1
1 0.386191 1
0.0891432 1 1
0.0887465 1 1
0.0882277 1 1
0.0877852 1 1
0.0873884 1 1
0.409262 1 1
0.791409 0.988174 1
0.983505 0.96878 1
1 0.946593 1
0.572244 1 1
0.572656 1 1
0.57583 1 1
0.583947 1 1
0.609552 1 1
0.678569 1 1
0.808743 1 1
0.950195 1 1
1 1 1
