public/CINECOLOR_S-LOG3.cube
TITLE "Generated by Resolve"
LUT_3D_SIZE 33
0.0514839 0.0487678 0.0730449
0.0514839 0.0487678 0.0730449
0.0514839 0.0487678 0.0730449
0.0514839 0.0487678 0.0730449
0.0514839 0.0487678 0.0730449
0.0909895 0.0425422 0.0722362
0.123949 0.0320439 0.071519
0.153475 0.00801099 0.0708171
0.180758 0 0.0697185
0.214939 0 0.0692607
0.256306 0 0.068986
0.304768 0 0.0690318
0.35877 0 0.0695811
0.41825 0 0.0705272
0.483543 0 0.0715343
0.553292 0 0.0732433
0.625376 1.5259e-05 0.0766918
0.697261 0.00222782 0.0830701
0.767376 0.00546273 0.0925917
0.836759 0.0107118 0.104662
0.894667 0.0181888 0.118791
0.944198 0.0273289 0.134722
0.989944 0.0373236 0.151125
1 0.0471351 0.167285
1 0.0523079 0.17911
1 0.0526436 0.185733
1 0.0526436 0.192325
1 0.0526741 0.198566
1 0.0526894 0.204761
1 0.0526894 0.211261
1 0.0527199 0.217426
1 0.0527199 0.219837
1 0.0527199 0.219837
0.0514839 0.0487678 0.0730449
0.0514839 0.0487678 0.0730449
0.0514839 0.0487678 0.0730449
0.0514839 0.0487678 0.0730449
0.0514839 0.0487678 0.0730449
0.091783 0.042359 0.072221
0.124987 0.0316625 0.0714885
0.154543 0.00726329 0.0708019
0.182193 0 0.0697032
0.217197 0 0.0692454
0.259571 0 0.0690471
0.309209 0 0.0691234
0.364782 0 0.0696574
0.426291 0 0.070634
0.494133 0 0.0715953
0.568689 0 0.0739757
0.647593 0.000671397 0.0783856
0.720317 0.00296025 0.0856489
0.788052 0.00671397 0.0957656
0.850004 0.012192 0.107622
0.902953 0.0196689 0.121355
0.95024 0.0285496 0.136812
0.994919 0.0384833 0.153033
1 0.0480812 0.168856
1 0.0526131 0.179934
1 0.0526436 0.18616
1 0.0526589 0.192584
1 0.0526741 0.198856
1 0.0526894 0.20502
1 0.0527047 0.211444
1 0.0527199 0.217563
1 0.0527199 0.219837
1 0.0527199 0.219837
0.0514839 0.0487678 0.0730449
0.0514839 0.0487678 0.0730449
0.0514839 0.0487678 0.0730449
0.0514839 0.0487678 0.0730449
0.0514839 0.0487678 0.0730449
0.0925765 0.0421759 0.0722057
0.12604 0.0312657 0.0714733
0.155779 0.00639353 0.0707561
0.184085 0 0.0696727
0.220035 0 0.0692912
0.264729 0 0.0690471
0.317006 0 0.0691691
0.377676 0 0.0699016
0.444877 0 0.0707408
0.515465 0 0.0722515
0.587411 0 0.0745861
0.659205 0.00106813 0.0792401
0.728603 0.00340276 0.0867933
0.794095 0.0071107 0.0966201
0.854292 0.012665 0.108568
0.905882 0.0201572 0.122225
0.952209 0.0290074 0.137575
0.996185 0.0386816 0.153429
1 0.0482948 0.169192
1 0.0526131 0.179995
1 0.0526436 0.186191
1 0.0526436 0.192569
1 0.0526741 0.198764
1 0.0526894 0.204883
1 0.0526894 0.211276
1 0.0527199 0.21735
1 0.0527199 0.219837
1 0.0527199 0.219837
0.0514839 0.0487678 0.0730449
0.0514839 0.0487678 0.0730449
0.0514839 0.0487678 0.0730449
0.0514839 0.0487678 0.0730449
0.0514839 0.0487678 0.0730449
0.0932631 0.0420233 0.0721904
0.127352 0.0307774 0.0714427
0.157473 0.00514229 0.0707256
0.187427 0 0.0696727
0.228626 0 0.0692912
0.276692 0 0.0690929
0.329625 0 0.0693828
0.38764 0 0.0701305
0.451057 0 0.0709087
0.519432 0 0.0724193
0.589822 0 0.0747539
0.660624 0.00111391 0.0793317
0.728832 0.00341802 0.0868391
0.793225 0.00704967 0.0964981
0.852949 0.0125277 0.108278
0.904341 0.0198978 0.121752
0.950408 0.0285801 0.136873
0.993988 0.0382849 0.152682
1 0.047715 0.168246
1 0.0524147 0.17937
1 0.0526436 0.185702
1 0.0526436 0.192142
1 0.0526741 0.198245
1 0.0526894 0.204303
1 0.0526894 0.210666
1 0.0527199 0.216709
1 0.0527199 0.219837
1 0.0527199 0.219837
0.0514839 0.0487678 0.0730449
0.0514839 0.0487678 0.0730449
0.0514839 0.0487678 0.0730449
0.0514839 0.0487678 0.0730449
0.0514839 0.0487678 0.0730449
0.0929732 0.0420844 0.0721904
0.129427 0.0317388 0.0713207
0.159869 0.0116426 0.0702068
0.190417 0.00654612 0.0698405
0.228153 0 0.0686961
0.273564 0 0.0684215
0.324865 0 0.0685435
0.380591 0 0.0692302
0.442084 0 0.0699321
0.508949 0 0.0714275
0.578454 0 0.0738689
0.64802 0.000686656 0.0782025
0.715923 0.00277714 0.0850385
0.78088 0.00636301 0.094789
0.840818 0.0111696 0.105577
0.893339 0.0179751 0.11841
0.940154 0.026688 0.133486
0.98378 0.0358892 0.148775
1 0.0452583 0.164355
1 0.0513619 0.176715
1 0.0526436 0.184039
1 0.0526436 0.190417
1 0.0526741 0.19649
1 0.0526741 0.202716
1 0.0527047 0.208865
1 0.0527199 0.214878
1 0.0527199 0.219837
1 0.0527199 0.219837
0.022858 0.083711 0.0700999
0.0193942 0.0859693 0.0698863
0.0138552 0.0897078 0.0696574
0.00985733 0.0922713 0.0694133
0.0129854 0.0920272 0.0693675
0.0870832 0.087541 0.0682231
0.126726 0.0831159 0.0673991
0.158404 0.0780041 0.0671702
0.188754 0.0706798 0.0666819
0.225406 0.0518044 0.0660258
0.269596 0.0271611 0.0658274
0.318334 0 0.0649729
0.373159 0 0.0657359
0.432853 0 0.0669871
0.49781 0 0.0684215
0.566506 0 0.0712444
0.63537 0.000244144 0.0756847
0.703517 0.00250248 0.0829633
0.768307 0.00552377 0.0924697
0.828962 0.00988785 0.102983
0.882856 0.016495 0.115694
0.930098 0.024567 0.129961
0.973816 0.0335851 0.144991
1 0.0432441 0.161013
1 0.05037 0.174166
1 0.0526284 0.182666
1 0.0526436 0.188815
1 0.0526589 0.194842
1 0.0526741 0.201175
1 0.0526894 0.207187
1 0.0527199 0.213199
1 0.0527199 0.219425
1 0.0527199 0.219837
0 0.126268 0.0638895
0 0.127901 0.0634318
0 0.129 0.0631266
0 0.129427 0.0630808
0.00062562 0.128115 0.0632029
0.0655985 0.123781 0.0622263
0.11931 0.120439 0.0617838
0.153597 0.116686 0.0610666
0.18526 0.112505 0.0608225
0.222858 0.105516 0.0605783
0.267506 0.0921798 0.060502
0.317174 0.0614023 0.0606546
0.370672 0.0200351 0.0610056
0.42916 0.000167849 0.0619669
0.493278 0 0.0637827
0.561395 0 0.0672313
0.630121 0.000122072 0.0723583
0.698207 0.00224308 0.0804456
0.762997 0.00512703 0.0905165
0.823957 0.00946059 0.10164
0.878187 0.0157778 0.114519
0.925704 0.023682 0.128466
0.969299 0.0326848 0.14342
1 0.0421454 0.159243
1 0.0499123 0.172992
1 0.0526131 0.182025
1 0.0526436 0.188052
1 0.0526741 0.194064
1 0.0526741 0.200351
1 0.0526894 0.206332
1 0.0527047 0.212528
1 0.0527199 0.218555
1 0.0527199 0.219837
0 0.158587 0.0527199
0 0.159152 0.0523384
0 0.159472 0.0521401
0 0.159472 0.0521401
0 0.158236 0.0527504
0.033051 0.154314 0.0520943
0.106477 0.150973 0.0514382
0.145693 0.147951 0.0507973
0.179644 0.144717 0.0506294
0.218936 0.139269 0.0502327
0.264225 0.130587 0.0504463
0.314366 0.116167 0.0509804
0.369009 0.0885176 0.0526436
0.427619 0.0382849 0.0545815
0.490028 0 0.0563821
0.557977 0 0.0610208
0.626703 9.15541e-05 0.0677501
0.69453 0.00207523 0.0770275
0.759426 0.00491341 0.0879988
0.820691 0.00935378 0.10016
0.875257 0.0153353 0.113466
0.922667 0.0231174 0.127474
0.96672 0.0322423 0.142565
1 0.0414435 0.158083
1 0.0496986 0.17232
1 0.0526131 0.181521
1 0.0526436 0.187518
1 0.0526741 0.193515
1 0.0526741 0.199802
1 0.0526894 0.205768
1 0.0526894 0.212024
1 0.0527199 0.217945
1 0.0527199 0.219837
0 0.189197 0.0271305
0 0.189654 0.0267338
0 0.189746 0.0266575
0 0.189471 0.0268711
0 0.187457 0.0285801
0.00128176 0.18407 0.0298924
0.0837873 0.180377 0.0293278
0.133761 0.177966 0.0290684
0.171633 0.17499 0.0289158
0.213397 0.170672 0.0286564
0.260151 0.164157 0.0285191
0.311131 0.154147 0.0288243
0.365988 0.138247 0.0291752
0.424964 0.109834 0.0297704
0.488991 0.055436 0.0400549
0.555032 0 0.0490425
0.624048 0.000183108 0.0593576
0.691707 0.00189212 0.0708782
0.756786 0.00468452 0.0836957
0.818265 0.0091249 0.0977646
0.873045 0.0149996 0.111879
0.920851 0.0227359 0.126696
0.964782 0.0318151 0.141863
1 0.04094 0.157244
1 0.0495766 0.171847
1 0.0526131 0.18117
1 0.0526436 0.187167
1 0.0526589 0.193179
1 0.0526741 0.19939
1 0.0526894 0.205325
1 0.0527047 0.211566
1 0.0527199 0.217487
1 0.0527199 0.219837
0 0.227802 0.025391
0 0.228077 0.025391
0 0.227939 0.025391
0 0.227131 0.025391
0 0.224186 0.0253605
0 0.220218 0.0251011
0.0144808 0.217212 0.0249332
0.109865 0.214389 0.0244144
0.15758 0.211658 0.024094
0.203937 0.208286 0.0237278
0.253346 0.20293 0.0237278
0.306157 0.195712 0.024033
0.361547 0.184848 0.0244144
0.421149 0.168688 0.0250553
0.485664 0.142443 0.025864
0.552865 0.0879683 0.0261692
0.621149 0.0093843 0.032105
0.688411 0.00166323 0.0560922
0.754177 0.00468452 0.0742199
0.815579 0.00886549 0.0910048
0.871 0.0147097 0.107637
0.919264 0.0224308 0.124636
0.963363 0.0314946 0.141131
1 0.0406195 0.15671
1 0.0495003 0.171527
1 0.0526131 0.180896
1 0.0526436 0.186877
1 0.0526589 0.192935
1 0.0526741 0.199069
1 0.0526894 0.205005
1 0.0527047 0.211231
1 0.0527199 0.217121
1 0.0527199 0.219837
0 0.272663 0.0260166
0 0.272663 0.0260166
0 0.272236 0.0259403
0 0.271229 0.0257725
0 0.267643 0.0257267
0 0.263203 0.0256657
0 0.260929 0.025742
0.0379797 0.258061 0.0251469
0.124636 0.25507 0.0242771
0.186511 0.251896 0.0240024
0.241367 0.247807 0.0236973
0.297566 0.242222 0.0241093
0.355077 0.234241 0.0243687
0.415686 0.223133 0.0251469
0.480064 0.206027 0.0252689
0.548302 0.179232 0.0258793
0.617685 0.123903 0.0269932
0.685924 0.043595 0.033402
0.751171 0.0174411 0.0508431
0.812512 0.00848402 0.0737011
0.868467 0.014313 0.0978714
0.91751 0.0222934 0.11902
0.962066 0.0311589 0.138811
1 0.0403601 0.15613
1 0.0494545 0.171313
1 0.0526131 0.180697
1 0.0526436 0.186648
1 0.0526589 0.192752
1 0.0526741 0.198825
1 0.0526894 0.204761
1 0.0526894 0.210941
1 0.0527199 0.216846
1 0.0527199 0.219852
0 0.322301 0.0265965
0 0.322148 0.026566
0 0.321523 0.0264439
0 0.320027 0.0264134
0 0.316258 0.0266423
0 0.311635 0.0263371
0 0.308904 0.0262913
0 0.306661 0.0262608
0.0482185 0.304189 0.025742
0.15555 0.300877 0.0247196
0.222385 0.296834 0.0240787
0.284123 0.292195 0.0240024
0.345129 0.286229 0.0242313
0.407279 0.278019 0.0246891
0.472816 0.265843 0.0248722
0.541161 0.248646 0.0251469
0.610925 0.22298 0.0259556
0.680095 0.179858 0.0277867
0.746822 0.113375 0.0308537
0.809293 0.0397192 0.0451209
0.865293 0.0138247 0.0739452
0.914916 0.0217594 0.104356
0.959915 0.0306706 0.129931
1 0.0400397 0.152575
1 0.0493935 0.171023
1 0.0526131 0.18056
1 0.0526436 0.186481
1 0.0526436 0.192615
1 0.0526741 0.198627
1 0.0526894 0.204532
1 0.0526894 0.210712
1 0.0527199 0.216617
1 0.0527199 0.219852
0 0.376257 0.0278019
0 0.375723 0.0277867
0 0.374975 0.027924
0 0.373373 0.0279698
0 0.368887 0.0277104
0 0.363912 0.0276036
0 0.361379 0.027512
0 0.359213 0.0275883
0 0.35729 0.0275273
0.0556954 0.354101 0.026627
0.191089 0.349874 0.0249485
0.264317 0.345861 0.0245365
0.330953 0.340749 0.0245365
0.395941 0.33434 0.0246433
0.462852 0.325399 0.024567
0.532586 0.312947 0.0247196
0.602533 0.295903 0.0247196
0.672129 0.272663 0.0260777
0.739223 0.238987 0.0287633
0.803098 0.177859 0.0333562
0.861952 0.0920729 0.0458228
0.911849 0.0323644 0.060029
0.956863 0.0298772 0.106233
1 0.0394751 0.139956
1 0.0491188 0.166522
1 0.0526131 0.180407
1 0.0526436 0.186358
1 0.0526436 0.192508
1 0.0526741 0.198474
1 0.0526894 0.204379
1 0.0526894 0.210544
1 0.0527199 0.216419
1 0.0527199 0.219852
0.000427253 0.434073 0.0285496
0.000427253 0.433463 0.0285496
0.000381476 0.432074 0.0285191
0.000381476 0.430304 0.0285191
0.000518807 0.425147 0.0286412
0.000289921 0.419883 0.0284123
0.000457771 0.416907 0.0285801
0.000579843 0.414847 0.0287175
0.000503548 0.41294 0.0286412
0.00831617 0.410834 0.0283665
0.126696 0.406394 0.0264439
0.234379 0.402167 0.0253758
0.310445 0.397559 0.0245365
0.380316 0.392279 0.0246891
0.449622 0.385321 0.0245518
0.520836 0.375738 0.0242008
0.592615 0.363409 0.0243381
0.662486 0.347433 0.0247349
0.729885 0.327108 0.026566
0.793912 0.299336 0.030045
0.852934 0.25478 0.0358129
0.905638 0.187823 0.044831
0.953414 0.0531624 0.0596628
0.996796 0.0387579 0.108171
1 0.0484474 0.148348
1 0.0526131 0.173754
1 0.0526436 0.186282
1 0.0526436 0.192432
1 0.0526741 0.198352
1 0.0526894 0.204242
1 0.0526894 0.210407
1 0.0527199 0.216251
1 0.0527199 0.219852
0 0.494499 0.0276799
0 0.49366 0.0276951
0 0.49218 0.0277256
0 0.489769 0.0275578
0 0.484398 0.0280003
0 0.478889 0.0278935
0 0.475654 0.0279698
0 0.473274 0.0280156
0.000167849 0.471519 0.0282902
0.00015259 0.469551 0.0281834
0.04271 0.466407 0.0272221
0.182635 0.461204 0.0248875
0.280674 0.45687 0.0238346
0.358968 0.452415 0.0238193
0.432364 0.446983 0.0240177
0.506508 0.439445 0.0242161
0.580179 0.43003 0.0243992
0.65214 0.418326 0.0249485
0.721279 0.40415 0.0269627
0.786023 0.386206 0.0298009
0.845045 0.362844 0.0339208
0.896391 0.330465 0.0403754
0.943313 0.277913 0.0494087
0.991394 0.134554 0.0630655
1 0.061387 0.0966049
1 0.0525063 0.144961
1 0.0526131 0.174899
1 0.0526436 0.19115
1 0.0526741 0.198276
1 0.0526894 0.20415
1 0.0526894 0.2103
1 0.0527199 0.216159
1 0.0527199 0.219852
0 0.556558 0.0260166
0 0.555474 0.0260319
0 0.553841 0.026154
0 0.551232 0.0264134
0 0.545495 0.0263066
0 0.539925 0.0265507
0 0.536614 0.0265965
0 0.534081 0.0266575
0 0.532097 0.0267033
0 0.530053 0.0265812
0 0.527993 0.026566
0.0854047 0.523919 0.0249638
0.235691 0.519188 0.0231937
0.330694 0.515267 0.022858
0.410559 0.511208 0.0235752
0.487648 0.505287 0.0237583
0.564034 0.49749 0.0239261
0.638682 0.488884 0.0250553
0.709834 0.477928 0.0267033
0.776501 0.464912 0.0298009
0.837751 0.449393 0.0344396
0.890822 0.429374 0.0408179
0.937407 0.402045 0.0485695
0.980819 0.358999 0.0569314
1 0.276478 0.0668345
1 0.107591 0.0805066
1 0.0524605 0.133288
1 0.0525978 0.171954
1 0.0526741 0.194827
1 0.0526894 0.204074
1 0.0526894 0.210193
1 0.0527199 0.216052
1 0.0527199 0.219867
0 0.620523 0.0266423
0 0.619196 0.0266117
0 0.617487 0.0263523
0 0.614588 0.0262913
0 0.608438 0.0261997
0 0.602396 0.0261692
0 0.598962 0.0261387
0 0.596536 0.0258946
0 0.594675 0.0261845
0 0.592706 0.0261845
0 0.590585 0.0261692
0.0258488 0.58761 0.0252995
0.165362 0.583597 0.0236057
0.294957 0.579538 0.0229191
0.384939 0.576486 0.0235599
0.466102 0.571679 0.0237278
0.545281 0.565621 0.0238956
0.622415 0.558343 0.0247044
0.69546 0.549935 0.0262303
0.763607 0.540536 0.0287785
0.827085 0.529244 0.0331121
0.882414 0.516014 0.0395361
0.930877 0.498985 0.0477913
0.976013 0.475059 0.0572824
1 0.4383 0.0666361
1 0.367208 0.0728466
1 0.163317 0.0803998
1 0.112245 0.120027
1 0.0525673 0.161776
1 0.0526741 0.19791
1 0.0527047 0.210147
1 0.0527199 0.215961
1 0.0527199 0.219883
0.00120546 0.685023 0.0293431
0.00111391 0.68368 0.0292515
0.000961318 0.681422 0.029099
0.0009308 0.678645 0.0290684
0.000518807 0.672389 0.0286412
0 0.666316 0.0281071
0.000106813 0.66302 0.0282292
0 0.660319 0.0280919
0 0.658244 0.027985
0 0.656245 0.0276799
0 0.654322 0.0275883
0 0.652277 0.0274815
0.0756695 0.648737 0.0263218
0.245747 0.644953 0.0247654
0.3561 0.64184 0.0248722
0.442435 0.637858 0.0251469
0.524956 0.632898 0.0250401
0.604089 0.626612 0.0250401
0.679118 0.619699 0.0259251
0.749584 0.612436 0.027985
0.814221 0.603937 0.0314641
0.87155 0.595041 0.0371252
0.920928 0.58407 0.0446479
0.966598 0.569284 0.0539101
1 0.548287 0.0639963
1 0.513939 0.0733806
1 0.447837 0.0743267
1 0.325734 0.0746929
1 0.163928 0.0991073
1 0.0525063 0.146212
1 0.0526741 0.199664
1 0.0527199 0.215915
1 0.0527199 0.219898
0.00703441 0.748791 0.035172
0.00686656 0.747219 0.0349889
0.00688182 0.745434 0.0350042
0.00643931 0.742458 0.0345617
0.00572213 0.735821 0.0338445
0.00518807 0.729976 0.0333104
0.00482185 0.726467 0.0329442
0.00437934 0.723934 0.0325017
0.00415045 0.721721 0.0322881
0.00396735 0.719768 0.032105
0.0039826 0.717998 0.032105
0.00392157 0.716091 0.0320439
0.00355535 0.714244 0.031693
0.189807 0.709331 0.0289921
0.325353 0.705928 0.0283665
0.418128 0.702617 0.0281376
0.503227 0.698085 0.0275425
0.58497 0.69276 0.0269474
0.662196 0.686793 0.0271458
0.73402 0.680491 0.0280308
0.800061 0.673793 0.0303655
0.859342 0.667292 0.0348974
0.909529 0.660395 0.0413825
0.955337 0.650828 0.0495003
0.998947 0.638193 0.0584268
1 0.61854 0.06804
1 0.581659 0.0714122
1 0.523613 0.0737621
1 0.416052 0.0738842
1 0.216876 0.0847334
1 0.0524758 0.138933
1 0.0526741 0.199756
1 0.0527199 0.219898
0.0158083 0.811109 0.043946
0.0156863 0.809812 0.0438239
0.0152285 0.80766 0.0433661
0.0146944 0.804364 0.0428168
0.0137026 0.798184 0.041825
0.0128939 0.792248 0.0410315
0.0122072 0.788724 0.0403296
0.0119173 0.786114 0.0400397
0.0118563 0.784237 0.0399786
0.0115969 0.782422 0.0397345
0.0111543 0.780499 0.0392767
0.0109102 0.778714 0.0390478
0.0106508 0.776852 0.0387884
0.12311 0.772946 0.0366064
0.293721 0.768536 0.0342107
0.394949 0.765255 0.0333562
0.48304 0.760906 0.0322118
0.566232 0.755764 0.0305943
0.645243 0.750286 0.0298466
0.718624 0.74461 0.0297704
0.786191 0.739116 0.0310063
0.846815 0.733608 0.0337987
0.898299 0.728634 0.0390478
0.94406 0.72282 0.0458686
0.986847 0.714961 0.0534981
1 0.702739 0.0615091
1 0.680568 0.065919
1 0.646159 0.0679484
1 0.594705 0.0708171
1 0.49546 0.0742657
1 0.314946 0.0810559
1 0.161685 0.129625
1 0.0526284 0.183169
0.0276036 0.870832 0.0557259
0.0271916 0.869169 0.055314
0.0266423 0.86688 0.0547646
0.0259098 0.863737 0.0540322
0.0246891 0.857893 0.0528115
0.0232853 0.852003 0.0514229
0.0228122 0.848829 0.0509346
0.0223697 0.846372 0.0504921
0.0217746 0.844282 0.049897
0.0213931 0.842405 0.0495155
0.0210727 0.840833 0.0492103
0.0207218 0.839063 0.0488441
0.0204471 0.837537 0.0485847
0.0442664 0.835203 0.0475166
0.264927 0.828733 0.0427253
0.375296 0.82446 0.0405585
0.465553 0.820523 0.0390326
0.549767 0.815244 0.0365606
0.629313 0.809934 0.0348211
0.703532 0.804196 0.0332494
0.772351 0.799176 0.0332799
0.834333 0.794217 0.0347295
0.887419 0.790204 0.0382544
0.93315 0.786465 0.0436103
0.975479 0.781369 0.0497597
1 0.774044 0.0565194
1 0.760296 0.0608225
1 0.737743 0.0623178
1 0.707027 0.0642405
1 0.662181 0.0669566
1 0.58645 0.0713512
1 0.446418 0.0801556
1 0.314916 0.092546
0.0435187 0.925963 0.0716564
0.0430304 0.924407 0.0711681
0.042359 0.922271 0.0704814
0.0414588 0.919539 0.0695811
0.0396582 0.913725 0.0677958
0.037995 0.9084 0.0661173
0.0369726 0.905241 0.065095
0.0362097 0.902693 0.064332
0.0356146 0.90071 0.0637522
0.0351263 0.899031 0.0632639
0.0347601 0.897505 0.0628824
0.0344091 0.896239 0.0625315
0.0339971 0.894728 0.0621195
0.0335699 0.893187 0.0616922
0.247929 0.885267 0.0549783
0.364385 0.880217 0.0514534
0.453742 0.8757 0.0485847
0.537743 0.870588 0.0455787
0.616587 0.864927 0.0423438
0.691234 0.859434 0.0396735
0.760159 0.854078 0.0379644
0.822919 0.849348 0.037705
0.877317 0.845747 0.0394293
0.923659 0.842954 0.0432746
0.965438 0.839643 0.0480354
1 0.834852 0.0531319
1 0.826505 0.0575265
1 0.811185 0.0581826
1 0.79118 0.0590829
1 0.764294 0.0608225
1 0.724681 0.063035
1 0.661265 0.0670024
1 0.598245 0.070634
0.0613107 0.977493 0.0894331
0.0606699 0.975891 0.0887922
0.0601511 0.974182 0.0882887
0.0590982 0.971267 0.0872358
0.0569924 0.965728 0.0851301
0.0553445 0.960678 0.0834821
0.0541695 0.95758 0.0822919
0.0533455 0.9552 0.0814679
0.0527657 0.953429 0.0809033
0.0522621 0.951965 0.0803998
0.0517739 0.95053 0.0798962
0.0513161 0.949187 0.0794385
0.0508583 0.947906 0.078996
0.0503548 0.946441 0.0784772
0.255009 0.93698 0.0698863
0.366506 0.931456 0.0654154
0.452369 0.926467 0.0617533
0.532464 0.921019 0.0577707
0.609659 0.915145 0.0535744
0.683238 0.909148 0.0497139
0.751949 0.903563 0.046891
0.81474 0.89868 0.0449531
0.870069 0.894484 0.0445106
0.916426 0.89189 0.0462806
0.957321 0.889204 0.0489204
0.995804 0.885618 0.0519265
1 0.880095 0.0547951
1 0.870527 0.0552834
1 0.857847 0.0560922
1 0.840513 0.0568551
1 0.8168 0.0580453
1 0.782238 0.0596323
1 0.752056 0.061326
0.0789197 1 0.107057
0.0784161 1 0.106554
0.0776837 1 0.105806
0.0766766 1 0.104814
0.0748913 1 0.103029
0.0729839 1 0.101106
0.0719158 1 0.100038
0.0712596 1 0.099382
0.0705577 1 0.0986801
0.0699626 1 0.0981003
0.0694133 0.999802 0.0975509
0.0689555 0.998627 0.0970932
0.0683909 0.99736 0.0965133
0.084062 0.995361 0.0953231
0.291844 0.983871 0.0846265
0.384329 0.978027 0.0796216
0.461158 0.972839 0.0754559
0.535164 0.967147 0.0709087
0.608026 0.96051 0.0656291
0.678782 0.954086 0.0609293
0.745632 0.947692 0.0563516
0.80763 0.941772 0.0528115
0.863355 0.936858 0.0505837
0.909972 0.933196 0.0503548
0.950484 0.930419 0.0513924
0.988083 0.927459 0.0531167
1 0.9234 0.0547494
1 0.917037 0.0551308
1 0.9084 0.0550851
1 0.897597 0.055024
1 0.883192 0.0552224
1 0.863859 0.0556649
1 0.846616 0.0565805
0.0948348 1 0.122972
0.0943008 1 0.122423
0.0935683 1 0.121691
0.0927443 1 0.120867
0.0910811 1 0.119203
0.089601 1 0.117723
0.0886244 1 0.116762
0.0878462 1 0.115984
0.0872358 1 0.115358
0.0902419 1 0.11458
0.0978256 1 0.113603
0.100175 1 0.112993
0.119875 1 0.111437
0.270787 1 0.101747
0.350637 1 0.0961929
0.417212 1 0.0916304
0.480827 1 0.0869306
0.545357 1 0.0816052
0.611048 1 0.0757305
0.67657 0.993591 0.069688
0.739986 0.986465 0.0641337
0.800092 0.979782 0.0593118
0.855283 0.974014 0.0556802
0.902754 0.969757 0.0541085
0.943481 0.966781 0.0540932
0.980636 0.963745 0.0547341
1 0.960372 0.0555886
1 0.955612 0.0559091
1 0.949462 0.0558328
1 0.941711 0.0555276
1 0.932296 0.055375
1 0.919997 0.0551614
1 0.909941 0.0550393
0.271946 1 0.120546
0.263645 1 0.120928
0.253681 1 0.121492
0.239582 1 0.122484
0.21622 1 0.123522
0.194507 1 0.124163
0.181277 1 0.124392
0.170916 1 0.124712
0.163073 1 0.124758
0.176928 1 0.123323
0.239399 1 0.118151
0.288228 1 0.113863
0.329854 1 0.109941
0.371511 1 0.105974
0.414557 1 0.102037
0.460243 1 0.0978866
0.509346 1 0.0931106
0.5626 1 0.0875563
0.619196 1 0.0814832
0.677806 1 0.0753643
0.736339 1 0.0691997
0.7935 1 0.0638743
0.847486 1 0.0594644
0.89485 1 0.0567178
0.935744 0.999756 0.0559091
0.972839 0.99704 0.0560922
1 0.993927 0.0565957
1 0.989975 0.0567941
1 0.985107 0.0567636
1 0.979431 0.056611
1 0.97232 0.0564736
1 0.963623 0.0561837
1 0.95671 0.0559396
0.422446 1 0.107012
0.417853 1 0.107622
0.411872 1 0.108186
0.403891 1 0.108919
0.392386 1 0.109972
0.385336 1 0.110674
0.382803 1 0.110842
0.382498 1 0.110826
0.38497 1 0.110536
0.390402 1 0.109972
0.399222 1 0.109041
0.412039 1 0.107561
0.428534 1 0.105928
0.449592 1 0.103655
0.475822 1 0.100984
0.507301 1 0.0974289
0.544198 1 0.0931563
0.586404 1 0.0882734
0.633265 1 0.0827649
0.683543 1 0.0769513
0.735973 1 0.0711376
0.788617 1 0.0658122
0.839704 1 0.0610361
0.886381 1 0.057847
0.92726 1 0.0565805
0.964111 1 0.05626
0.999466 1 0.0566262
1 1 0.0568399
1 1 0.0568093
1 1 0.0569009
1 1 0.0569619
1 1 0.0568704
1 0.995987 0.0568551
0.518975 1 0.0963302
0.515145 1 0.0967727
0.510613 1 0.0972915
0.504967 1 0.0979019
0.495872 1 0.0990616
0.489158 1 0.099794
0.485786 1 0.100175
0.484245 1 0.100328
0.484047 1 0.100328
